svg/color/koon.svg

<svg width="40" height="40" viewBox="0 0 40 40" fill="none" xmlns="http://www.w3.org/2000/svg">
<g clip-path="url(#clip0_819_3691)">
<path d="M20 0C31.0457 0 40 8.9543 40 20C40 31.0457 31.0457 40 20 40C8.95431 40 7.90517e-06 31.0457 0 20C6.58765e-07 8.95431 8.95431 1.97595e-06 20 0Z" fill="#F6CCD0"/>
<path d="M26 6C30.4183 6 34 9.58172 34 14V26C34 30.4183 30.4183 34 26 34H14C9.58172 34 6 30.4183 6 26V14C6 9.58172 9.58172 6 14 6H26Z" fill="#D00013"/>
<path d="M24.0108 17.3449C24.0108 17.3449 23.6358 17.4949 23.1999 17.9749C22.7633 18.4558 22.5099 18.9958 22.6974 19.1391C22.7699 19.1941 22.9366 19.2049 23.2391 18.9308C23.5175 18.6888 23.736 18.3856 23.8774 18.0449C24.0724 17.5699 24.0108 17.3508 24.0108 17.3449ZM26.3966 18.2099C25.9124 17.9608 25.5583 17.6566 25.1899 17.4683C24.8383 17.2883 24.6108 17.2124 24.3266 17.2508C24.2871 17.2578 24.2481 17.2676 24.2099 17.2799C24.2099 17.2799 24.3566 17.7799 23.7741 18.6191C23.1841 19.4708 22.6491 19.4649 22.4966 19.2308C22.3374 18.9841 22.5433 18.4808 22.8866 18.0333C23.2466 17.5649 23.8783 17.1766 23.8783 17.1766C23.8783 17.1766 23.6774 17.0533 23.1824 17.3349C22.6991 17.6066 21.8683 18.2574 21.0974 19.3541C20.3258 20.4508 20.1724 21.0541 20.0624 21.5291C19.9524 22.0041 20.0524 22.5124 20.5791 22.5124C21.1058 22.5124 21.7191 21.7091 21.8924 21.4299C22.2141 20.9099 22.4233 20.1124 21.9858 20.2216C21.7699 20.2758 21.5958 20.5141 21.4858 20.7441C21.4163 20.8918 21.3632 21.0466 21.3274 21.2058C21.1743 21.2687 21.0305 21.3523 20.8999 21.4541C20.7549 21.5618 20.6194 21.6816 20.4949 21.8124C20.4949 21.8124 20.4966 21.4324 20.7991 20.8174C21.1024 20.2033 21.6574 19.9224 21.9724 19.8958C22.2558 19.8733 22.6249 20.1141 22.3124 21.0016C21.9999 21.8891 21.0766 22.9683 20.1074 22.9816C19.2133 22.9941 18.6274 21.8524 19.8724 19.8608C21.2508 17.6583 22.8674 16.9833 23.3916 16.9083C23.9166 16.8333 24.0874 17.0641 24.0874 17.0641C24.4032 16.9347 24.7443 16.8786 25.0849 16.8999C25.7266 16.9433 26.2216 17.3966 26.8766 17.7158C26.7058 17.8783 26.5433 18.0491 26.3974 18.2091M29.2758 17.4674C28.8316 17.7524 28.2174 18.0108 27.6266 17.9558C27.4774 18.1099 27.3174 18.2891 27.1574 18.4841C28.1808 18.6866 29.0783 18.0516 29.5549 17.5116C29.7288 17.3178 29.8783 17.1035 29.9999 16.8733C29.7827 17.0994 29.5397 17.2982 29.2758 17.4674ZM27.9124 20.3533C27.9203 20.3398 27.9267 20.3256 27.9316 20.3108C27.9286 20.2873 27.9176 20.2655 27.9005 20.2491C27.8833 20.2327 27.8611 20.2227 27.8374 20.2208C27.7399 20.2166 27.6066 20.2349 27.2583 20.6208C26.9688 20.9399 26.7197 21.2934 26.5166 21.6733C26.3166 22.0383 26.2358 22.3099 26.3499 22.3799C26.3874 22.3995 26.4309 22.4039 26.4716 22.3924C26.5491 22.3741 26.6374 22.3008 26.7716 22.1466C26.8341 22.0733 26.9033 21.9699 26.9866 21.8558C27.2174 21.5424 27.7974 20.5533 27.9124 20.3533ZM24.2883 20.7733C24.3466 20.6216 24.4208 20.3224 24.2666 20.2049C24.1008 20.0799 23.6791 20.3724 23.6766 20.6724C23.6741 20.9799 23.9741 21.1183 24.0458 21.1383C24.0874 21.1491 24.1008 21.1466 24.1208 21.1141C24.1844 21.0045 24.2404 20.8906 24.2883 20.7733ZM23.9691 21.3316C23.8645 21.2833 23.767 21.2211 23.6791 21.1466C23.5912 21.0727 23.5177 20.9831 23.4624 20.8824C23.4558 20.8724 23.4499 20.8799 23.4433 20.8891C23.4374 20.8974 23.4108 20.9216 23.1858 21.2508C22.9608 21.5808 22.6158 22.2641 22.9274 22.3799C23.1283 22.4549 23.4616 22.1041 23.6441 21.8716C23.7677 21.7091 23.8796 21.5382 23.9791 21.3599C23.9891 21.3408 23.9791 21.3358 23.9691 21.3316ZM27.5174 22.1208C27.4324 22.2566 27.3358 22.5174 27.6149 22.3549C27.9566 22.1583 28.4433 21.4191 28.4433 21.4191H28.6641C28.4632 21.7281 28.2396 22.0217 27.9949 22.2974C27.6491 22.6808 27.2266 23.0299 26.9283 22.9949C26.5816 22.9549 26.6899 22.4983 26.6899 22.4983C26.6899 22.4983 26.1933 23.0274 25.8483 22.9899C25.3841 22.9383 25.5258 22.3641 25.5258 22.3641C25.5258 22.3641 25.0008 23.0091 24.6424 22.9891C24.0816 22.9558 24.2224 22.2733 24.3791 21.7924C24.4624 21.5358 24.5399 21.3341 24.5399 21.3341C24.5399 21.3341 24.4841 21.3483 24.3649 21.3658C24.3016 21.3749 24.1883 21.3816 24.1883 21.3816C24.1883 21.3816 23.9549 21.7941 23.7674 22.0416C23.5808 22.2891 22.7858 23.1433 22.3174 22.9724C21.8858 22.8141 22.0291 22.1524 22.2808 21.6266C22.6474 20.8599 23.6808 19.7574 24.2774 19.9033C24.8949 20.0533 24.2916 21.1799 24.2916 21.1799C24.2916 21.1799 24.2916 21.1841 24.2974 21.1874C24.3099 21.1916 24.3424 21.1958 24.4166 21.1808C24.4937 21.1652 24.5693 21.1429 24.6424 21.1141C24.6424 21.1141 25.2641 19.8133 25.9499 18.9616C26.6358 18.1116 28.0041 16.6449 28.5416 16.9999C28.6716 17.0874 28.6133 17.3874 28.4366 17.7516C28.357 17.7775 28.276 17.7992 28.1941 17.8166C28.3124 17.6016 28.3908 17.4208 28.4141 17.2941C28.4949 16.8541 27.4683 17.7816 26.7349 18.7774C26.293 19.3781 25.9003 20.0135 25.5608 20.6774C25.6932 20.5967 25.8197 20.5065 25.9391 20.4074C26.2664 20.1363 26.5775 19.846 26.8708 19.5383C27.1529 19.2493 27.4176 18.9438 27.6633 18.6233C27.7414 18.6195 27.8193 18.6114 27.8966 18.5991C27.6285 18.9628 27.3362 19.3081 27.0216 19.6324C26.7299 19.9283 26.4133 20.2466 26.1374 20.4783C25.8917 20.687 25.6325 20.8794 25.3616 21.0541C25.3616 21.0541 24.7199 22.3483 25.0691 22.4308C25.2741 22.4808 25.6791 21.8558 25.6791 21.8558C25.6791 21.8558 26.2083 21.0499 26.5266 20.6858C26.9616 20.1916 27.3349 19.9058 27.7099 19.9008C27.9274 19.8966 28.0558 20.1283 28.0558 20.1283L28.1583 19.9699H28.7891C28.7891 19.9699 27.6108 21.9683 27.5166 22.1191M29.2758 17.4691C28.8316 17.7533 28.2174 18.0116 27.6266 17.9566C27.4766 18.1108 27.3174 18.2899 27.1566 18.4849C28.1808 18.6874 29.0774 18.0533 29.5549 17.5124C29.7289 17.3184 29.8783 17.1037 29.9999 16.8733C29.7827 17.0994 29.5397 17.2982 29.2758 17.4674M20.4174 18.4491H19.8174L19.4783 18.9974H20.0783L20.4174 18.4491ZM17.5758 20.3466C17.8316 19.9966 18.5358 18.7708 18.5358 18.7708C18.5328 18.7474 18.5219 18.7257 18.505 18.7093C18.488 18.6929 18.4659 18.6829 18.4424 18.6808C18.3449 18.6758 18.1824 18.7091 17.8591 19.1133C17.5366 19.5174 17.2858 19.8383 17.1033 20.1733C16.9033 20.5383 16.8149 20.7958 16.9308 20.8658C16.9679 20.8844 17.0106 20.8888 17.0508 20.8783C17.1258 20.8599 17.2241 20.7841 17.3583 20.6299C17.4347 20.5383 17.5075 20.4438 17.5766 20.3466M14.3574 18.6883C14.1916 18.5633 13.7699 18.8558 13.7674 19.1549C13.7649 19.4624 14.1474 19.5566 14.1966 19.5583C14.211 19.5596 14.2255 19.5567 14.2383 19.5499C14.2471 19.5447 14.2541 19.5368 14.2583 19.5274C14.3034 19.4393 14.344 19.3489 14.3799 19.2566C14.4383 19.1041 14.5116 18.8058 14.3574 18.6883ZM14.1074 19.7466C13.9931 19.7107 13.8839 19.6603 13.7824 19.5966C13.6839 19.5324 13.6037 19.4437 13.5499 19.3391C13.5441 19.3291 13.5374 19.3366 13.5316 19.3458C13.5258 19.3541 13.4924 19.3966 13.2666 19.7274C13.0416 20.0591 12.7066 20.7358 13.0199 20.8524C13.2199 20.9274 13.5566 20.5741 13.7399 20.3424C13.8769 20.1606 14.0035 19.9711 14.1191 19.7749C14.1266 19.7549 14.1191 19.7499 14.1074 19.7466ZM19.0074 19.9499H19.2266C19.2266 19.9499 18.1258 21.5433 17.5033 21.4691C17.1566 21.4283 17.2591 20.9999 17.2591 20.9999C17.2591 20.9999 16.7716 21.5708 16.3233 21.4549C15.9174 21.3508 16.1799 20.6749 16.1799 20.6749C16.1333 20.6933 15.2541 21.6841 14.6358 21.4466C13.9891 21.1966 14.3249 20.3666 14.4483 20.1174C14.5524 19.9066 14.6674 19.7016 14.6674 19.7016C14.6674 19.7016 14.5683 19.7299 14.5049 19.7441L14.3499 19.7774C14.3499 19.7774 14.0441 20.2741 13.8574 20.5224C13.6699 20.7699 12.8758 21.6224 12.4074 21.4533C11.9391 21.2833 12.0549 20.6283 12.3183 20.1074C12.7449 19.2641 13.7566 18.2274 14.3666 18.3841C14.9824 18.5416 14.4724 19.5408 14.4724 19.5408C14.4724 19.5408 14.5949 19.5566 14.8891 19.3558C15.3116 19.0674 15.8691 18.2916 16.4733 18.3833C16.7583 18.4258 17.0233 18.7166 16.6608 19.2699C16.5449 19.4474 16.3508 19.6058 16.2024 19.4491C16.1099 19.3508 16.1908 19.1741 16.2883 19.0516C16.3261 19.002 16.3755 18.9625 16.4322 18.9365C16.4888 18.9105 16.551 18.8988 16.6133 18.9024C16.6133 18.9024 16.7133 18.6749 16.4591 18.6783C16.2533 18.6824 15.7333 19.1616 15.4399 19.6449C15.1708 20.0891 14.7624 20.8458 15.1716 21.0108C15.5474 21.1624 16.2624 20.3141 16.5933 19.8691C16.9241 19.4249 17.6783 18.4174 18.3116 18.3774C18.5291 18.3633 18.6591 18.5616 18.6591 18.5616L18.7324 18.4458H19.3649C19.3649 18.4458 18.1733 20.4349 18.0799 20.5849C18.0066 20.7024 17.9099 20.9683 18.1774 20.8191C18.4458 20.6708 19.0074 19.9499 19.0074 19.9499ZM18.6624 23.1366C18.1966 22.814 17.6387 22.6512 17.0724 22.6724C16.9193 22.6767 16.7694 22.7169 16.6348 22.7899C16.5001 22.8628 16.3846 22.9665 16.2974 23.0924C16.0558 22.6716 15.5791 22.4133 14.8416 22.4191C13.6499 22.4324 12.4674 22.9824 11.5316 22.9816C10.6341 22.9816 9.9791 22.4174 10.0008 21.4149C10.0399 19.6574 11.5258 18.0741 12.6341 17.3616C13.2733 16.9533 13.8083 16.8308 14.1574 16.8699C14.4124 16.8983 14.7191 17.1933 14.5258 17.6274C14.2416 18.2616 13.8491 18.2099 13.8633 17.9066C13.8716 17.7091 14.0033 17.5849 14.1016 17.5158C14.1729 17.4779 14.2525 17.4584 14.3333 17.4591C14.3899 17.4116 14.4308 17.0641 13.9758 17.1783C13.5208 17.2924 12.9674 17.7416 12.4424 18.3208C11.9174 18.9008 11.1008 19.9966 10.8991 21.1474C10.8049 21.6808 10.8666 22.6541 12.1324 22.6433C13.2049 22.6349 14.7866 21.9274 16.2399 21.9424C16.7459 21.9405 17.2429 22.0764 17.6774 22.3358C18.0533 22.5674 18.5041 22.9058 18.6641 23.1366" fill="white"/>
</g>
<defs>
<clipPath id="clip0_819_3691">
<rect width="40" height="40" fill="white"/>
</clipPath>
</defs>
</svg>

<svg xmlns="http://www.w3.org/2000/svg" width="40" height="40" fill="none" viewBox="0 0 40 40"><g clip-path="url(#koon_svg-a)"><path fill="#F6CCD0" d="M20 0c11.046 0 20 8.954 20 20s-8.954 20-20 20S0 31.046 0 20 8.954 0 20 0"/><path fill="#D00013" d="M26 6a8 8 0 0 1 8 8v12a8 8 0 0 1-8 8H14a8 8 0 0 1-8-8V14a8 8 0 0 1 8-8z"/><path fill="#fff" d="M24.01 17.345s-.374.15-.81.63-.69 1.02-.503 1.164c.073.055.24.066.542-.208.278-.242.497-.545.638-.886.195-.475.134-.694.134-.7m2.387.865c-.485-.25-.839-.553-1.207-.742-.352-.18-.58-.256-.863-.217a1 1 0 0 0-.117.029s.147.5-.436 1.34c-.59.85-1.125.845-1.277.61-.16-.246.046-.75.39-1.197.36-.468.991-.856.991-.856s-.2-.124-.696.158c-.483.272-1.314.922-2.085 2.02-.771 1.096-.925 1.7-1.035 2.174-.11.475-.01.983.517.983s1.14-.803 1.313-1.082c.322-.52.531-1.318.094-1.208-.216.054-.39.292-.5.522q-.105.223-.159.462a1.8 1.8 0 0 0-.427.248q-.218.163-.405.358s.002-.38.304-.995c.303-.614.858-.895 1.173-.921.284-.023.653.218.34 1.106-.312.887-1.235 1.966-2.205 1.98-.894.012-1.48-1.13-.235-3.121 1.379-2.203 2.995-2.878 3.52-2.953s.695.156.695.156a2.26 2.26 0 0 1 .998-.164c.642.043 1.137.497 1.792.816a10 10 0 0 0-.48.493m2.879-.742c-.444.285-1.059.544-1.65.489a9 9 0 0 0-.469.528c1.024.203 1.921-.432 2.398-.972a3.2 3.2 0 0 0 .445-.639q-.327.34-.724.594m-1.364 2.886a.2.2 0 0 0 .02-.042.104.104 0 0 0-.095-.09c-.097-.004-.23.014-.579.4a5.3 5.3 0 0 0-.741 1.052c-.2.365-.281.637-.167.707q.057.03.122.012c.077-.018.165-.091.3-.245.062-.074.131-.177.215-.291.23-.314.81-1.303.925-1.503m-3.624.42c.059-.151.133-.45-.021-.568-.166-.125-.588.167-.59.467-.003.308.297.446.369.466.041.011.055.009.075-.024q.095-.165.167-.34m-.319.559a1.3 1.3 0 0 1-.29-.185.9.9 0 0 1-.217-.265c-.006-.01-.012-.002-.019.007-.006.008-.032.033-.257.362-.225.33-.57 1.013-.259 1.129.201.075.535-.276.717-.508q.186-.245.335-.512c.01-.02 0-.024-.01-.028m3.548.789c-.085.136-.181.396.098.234.342-.197.828-.936.828-.936h.221q-.3.465-.67.878c-.345.384-.767.733-1.066.698-.346-.04-.238-.497-.238-.497s-.497.53-.842.492c-.464-.052-.322-.626-.322-.626s-.525.645-.884.625c-.56-.033-.42-.716-.263-1.197.083-.256.16-.458.16-.458s-.055.014-.174.032c-.063.009-.177.016-.177.016s-.233.412-.42.66c-.187.247-.982 1.101-1.45.93-.432-.158-.289-.82-.037-1.345.366-.767 1.4-1.87 1.996-1.724.618.15.015 1.277.015 1.277q-.001.001.005.007c.013.005.045.009.12-.006q.116-.024.225-.067s.622-1.3 1.308-2.152c.686-.85 2.054-2.317 2.592-1.962.13.087.071.387-.105.752q-.12.038-.243.065c.118-.215.197-.396.22-.523.08-.44-.946.488-1.68 1.483q-.663.903-1.173 1.9a3 3 0 0 0 .378-.27q.492-.406.932-.869.424-.434.792-.915a2 2 0 0 0 .234-.024q-.402.547-.875 1.033c-.292.296-.609.615-.885.846a7 7 0 0 1-.775.576s-.642 1.294-.293 1.377c.205.05.61-.575.61-.575s.53-.806.848-1.17c.435-.494.808-.78 1.183-.785.217-.004.346.227.346.227l.102-.158h.631s-1.178 1.998-1.272 2.15m1.759-4.65c-.444.283-1.059.542-1.65.487-.15.154-.309.333-.47.528 1.025.202 1.921-.432 2.399-.973a3.2 3.2 0 0 0 .445-.639q-.327.34-.724.594m-8.859.982h-.6l-.339.548h.6zm-2.841 1.898c.256-.35.96-1.576.96-1.576a.104.104 0 0 0-.094-.09c-.097-.005-.26.028-.583.432s-.573.725-.756 1.06c-.2.365-.288.623-.172.693.037.018.08.023.12.012.075-.018.173-.094.307-.248q.116-.138.219-.283m-3.22-1.659c-.165-.125-.587.168-.59.467-.002.307.38.402.43.403a.1.1 0 0 0 .041-.008.05.05 0 0 0 .02-.023q.068-.132.122-.27c.058-.153.132-.451-.023-.569m-.25 1.059a1.4 1.4 0 0 1-.325-.15.7.7 0 0 1-.232-.258c-.006-.01-.013-.002-.018.007-.006.008-.04.05-.265.381-.225.332-.56 1.009-.247 1.125.2.075.537-.278.72-.51q.206-.271.38-.567c.007-.02 0-.025-.013-.028m4.9.203h.22s-1.101 1.593-1.724 1.52c-.346-.042-.244-.47-.244-.47s-.487.57-.936.455c-.406-.104-.143-.78-.143-.78-.047.018-.926 1.01-1.544.772-.647-.25-.311-1.08-.188-1.33.104-.21.22-.415.22-.415s-.1.028-.163.042l-.155.033s-.306.497-.493.745-.981 1.1-1.45.931-.352-.825-.089-1.346c.427-.843 1.439-1.88 2.049-1.723.615.158.105 1.157.105 1.157s.123.016.417-.185c.423-.289.98-1.064 1.584-.973.285.043.55.334.188.887-.116.177-.31.336-.459.18-.092-.1-.011-.276.086-.398a.38.38 0 0 1 .325-.15s.1-.227-.154-.224c-.206.004-.726.484-1.02.967-.268.444-.677 1.2-.267 1.366.375.151 1.09-.697 1.421-1.142s1.085-1.452 1.719-1.492c.217-.014.347.185.347.185l.073-.116h.633s-1.192 1.989-1.285 2.139c-.073.117-.17.383.097.234.269-.148.83-.87.83-.87m-.345 3.187a2.62 2.62 0 0 0-1.59-.465.98.98 0 0 0-.775.42c-.241-.42-.718-.679-1.455-.673-1.192.013-2.375.563-3.31.563-.898 0-1.553-.565-1.531-1.567.039-1.758 1.525-3.34 2.633-4.053.64-.409 1.174-.531 1.523-.492.255.028.562.323.369.757-.284.635-.677.583-.663.28a.5.5 0 0 1 .239-.391.5.5 0 0 1 .231-.057c.057-.047.098-.395-.357-.28-.455.113-1.009.563-1.534 1.142-.525.58-1.341 1.676-1.543 2.826-.094.534-.032 1.507 1.233 1.496 1.073-.008 2.655-.716 4.108-.7a2.8 2.8 0 0 1 1.437.393c.376.231.827.57.987.8"/></g><defs><clipPath id="koon_svg-a"><path fill="#fff" d="M0 0h40v40H0z"/></clipPath></defs></svg>
